X:1
T:The humours of Kilclogher
D:John Williams: Steam
M:6/8
L:1/8
R:Jig
Q:120
K:Ador
B |: AGE G2E | cEE EFG | D2D D2E | GED D2B |
     AGE G2E | cEE EFG | A2A BGE | ABA A2B ::
     c2B c2d | ecA ABc | BAG GAB | dBG GAB |
     c2B c2d | ecA ABc | BAG GAB | A3  A2B :|